images/advance-testing.svg

<?xml version="1.0" encoding="UTF-8"?>
<svg version="1.1" viewBox="0 0 543 218" xmlns="http://www.w3.org/2000/svg" xmlns:cc="http://creativecommons.org/ns#" xmlns:dc="http://purl.org/dc/elements/1.1/" xmlns:rdf="http://www.w3.org/1999/02/22-rdf-syntax-ns#">
 <metadata>
  <rdf:RDF>
   <cc:Work rdf:about="">
    <dc:format>image/svg+xml</dc:format>
    <dc:type rdf:resource="http://purl.org/dc/dcmitype/StillImage"/>
    <dc:title>images/advance-testing</dc:title>
   </cc:Work>
  </rdf:RDF>
 </metadata>
 <title>images/advance-testing</title>
 <desc>Created with Sketch.</desc>
 <g fill="#8f8981">
  <path d="m333 52v-29h1v29h4l-4.5 9-4.5-9z"/>
  <path id="Line" d="m240 77h50v1h-50v4l-9-4.5 9-4.5z"/>
  <path d="m385 77h50v1h-50v4l-9-4.5 9-4.5z"/>
  <path d="m95 77h50v1h-50v4l-9-4.5 9-4.5z"/>
 </g>
 <rect transform="translate(290)" width="106" height="33" fill="#f44d27" fill-rule="evenodd"/>
 <text id="master" transform="translate(290)" fill="white" fill-opacity=".8" fill-rule="evenodd" font-family="'Source Code Pro'" font-size="12px" font-weight="900" text-anchor="middle"><tspan x="53" y="20" fill="white" fill-opacity=".8">master</tspan></text>
 <g fill="none" fill-rule="evenodd">
  <g id="other" transform="translate(290,61)">
   <rect width="86" height="33" fill="#efefe7" fill-rule="evenodd"/>
   <text fill="#979797" font-family="'Source Code Pro'" font-size="12px" font-weight="900" text-anchor="middle"><tspan x="43" y="21">f30ab</tspan></text>
  </g>
  <g transform="translate(435,61)">
   <rect width="86" height="33" fill="#efefe7" fill-rule="evenodd"/>
   <text fill="#979797" font-family="'Source Code Pro'" font-size="12px" font-weight="900" text-anchor="middle"><tspan x="43" y="21">87ab2</tspan></text>
  </g>
  <g transform="translate(145,61)">
   <rect width="86" height="33" fill="#efefe7" fill-rule="evenodd"/>
   <text fill="#979797" font-family="'Source Code Pro'" font-size="12px" font-weight="900" text-anchor="middle"><tspan x="43" y="21">34ac2</tspan></text>
  </g>
  <g transform="translate(0,61)">
   <rect width="86" height="33" fill="#efefe7" fill-rule="evenodd"/>
   <text fill="#979797" font-family="'Source Code Pro'" font-size="12px" font-weight="900" text-anchor="middle"><tspan x="43" y="21">98ca9</tspan></text>
  </g>
 </g>
 <path d="m479 103v30h-1v-30h-4l4.5-9 4.5 9z" fill="#8f8981"/>
 <rect transform="translate(435,123)" width="106" height="33" fill="#f44d27" fill-rule="evenodd"/>
 <text transform="translate(435,123)" fill="white" fill-opacity=".8" fill-rule="evenodd" font-family="'Source Code Pro'" font-size="12px" font-weight="900" text-anchor="middle"><tspan x="53" y="20" fill="white" fill-opacity=".8">testing</tspan></text>
 <path d="m479 165v37h-1v-37h-4l4.5-9 4.5 9z" fill="#8f8981"/>
 <rect transform="translate(435,184)" width="108" height="33" fill="#cd9f00" fill-rule="evenodd"/>
 <text transform="translate(435,184)" fill="white" fill-opacity=".8" fill-rule="evenodd" font-family="'Source Code Pro'" font-size="12px" font-weight="900" text-anchor="middle"><tspan x="54" y="20" fill="white" fill-opacity=".8">HEAD</tspan></text>
</svg>

<?xml version="1.0"?>
<svg xmlns="http://www.w3.org/2000/svg" xmlns:xlink="http://www.w3.org/1999/xlink" width="543px" height="218px" viewBox="0 0 543 218" version="1.1">
    <!-- Generator: Sketch 56.3 (81716) - https://sketch.com -->
    <title>images/advance-testing</title>
    <desc>Created with Sketch.</desc>
    <g id="03---Branch-Progression-2" stroke="none" stroke-width="1" fill="none" fill-rule="evenodd">
        <path id="Line-7" d="M333,52 L333,23 L334,23 L334,52 L338,52 L333.5,61 L329,52 L333,52 Z" fill="#8F8981" fill-rule="nonzero"/>
        <path id="Line" d="M240,77 L290,77 L290,78 L240,78 L240,82 L231,77.5 L240,73 L240,77 Z" fill="#8F8981" fill-rule="nonzero"/>
        <path id="Line-3" d="M385,77 L435,77 L435,78 L385,78 L385,82 L376,77.5 L385,73 L385,77 Z" fill="#8F8981" fill-rule="nonzero"/>
        <path id="Line-2" d="M95,77 L145,77 L145,78 L95,78 L95,82 L86,77.5 L95,73 L95,77 Z" fill="#8F8981" fill-rule="nonzero"/>
        <g id="ref" transform="translate(290.000000, 0.000000)">
            <rect id="Rectangle-2" fill="#F44D27" fill-rule="evenodd" x="0" y="0" width="106" height="33"/>
            <text stroke="none" font-family="Source Code Pro" font-size="12px" font-weight="900" fill="#979797" fill-opacity="1" text-anchor="middle" id="master">
                <tspan x="53" y="20">master</tspan>
            </text>
        </g>
        <g id="other" transform="translate(290.000000, 61.000000)">
            <rect id="Rectangle-2" fill="#EFEFE7" fill-rule="evenodd" x="0" y="0" width="86" height="33"/>
            <text stroke="none" font-family="Source Code Pro" font-size="12px" font-weight="900" fill="#979797" fill-opacity="1" text-anchor="middle" id="master">
                <tspan x="43" y="21">f30ab</tspan>
            </text>
        </g>
        <g id="other" transform="translate(435.000000, 61.000000)">
            <rect id="Rectangle-2" fill="#EFEFE7" fill-rule="evenodd" x="0" y="0" width="86" height="33"/>
            <text stroke="none" font-family="Source Code Pro" font-size="12px" font-weight="900" fill="#979797" fill-opacity="1" text-anchor="middle" id="master">
                <tspan x="43" y="21">87ab2</tspan>
            </text>
        </g>
        <g id="other" transform="translate(145.000000, 61.000000)">
            <rect id="Rectangle-2" fill="#EFEFE7" fill-rule="evenodd" x="0" y="0" width="86" height="33"/>
            <text stroke="none" font-family="Source Code Pro" font-size="12px" font-weight="900" fill="#979797" fill-opacity="1" text-anchor="middle" id="master">
                <tspan x="43" y="21">34ac2</tspan>
            </text>
        </g>
        <g id="other" transform="translate(0.000000, 61.000000)">
            <rect id="Rectangle-2" fill="#EFEFE7" fill-rule="evenodd" x="0" y="0" width="86" height="33"/>
            <text stroke="none" font-family="Source Code Pro" font-size="12px" font-weight="900" fill="#979797" fill-opacity="1" text-anchor="middle" id="master">
                <tspan x="43" y="21">98ca9</tspan>
            </text>
        </g>
        <path id="Line-8" d="M479,103 L479,133 L478,133 L478,103 L474,103 L478.5,94 L483,103 L479,103 Z" fill="#8F8981" fill-rule="nonzero"/>
        <g id="ref" transform="translate(435.000000, 123.000000)">
            <rect id="Rectangle-2" fill="#F44D27" fill-rule="evenodd" x="0" y="0" width="106" height="33"/>
            <text stroke="none" font-family="Source Code Pro" font-size="12px" font-weight="900" fill="#979797" fill-opacity="1" text-anchor="middle" id="master">
                <tspan x="53" y="20">testing</tspan>
            </text>
        </g>
        <path id="Line-10" d="M479,165 L479,202 L478,202 L478,165 L474,165 L478.5,156 L483,165 L479,165 Z" fill="#8F8981" fill-rule="nonzero"/>
        <g id="goldref" transform="translate(435.000000, 184.000000)">
            <rect id="Rectangle-3" fill="#CD9F00" fill-rule="evenodd" x="0" y="0" width="108" height="33"/>
            <text stroke="none" font-family="Source Code Pro" font-size="12px" font-weight="900" fill="#979797" fill-opacity="1" text-anchor="middle" id="master-2">
                <tspan x="54" y="20">HEAD</tspan>
            </text>
        </g>
    </g>
</svg>
